X: 022122
T: Benbo
C: Joe Liddy
Z: BB
S: "The Leitrim Fiddler" (Dublin 1981)
L: 1/8
M: 4/4
R: reel
Q: 1/4 = 180
K: Edor
GA | BE E2 BAFA | BE E2 DB,A,B, | D3E FDFA | BFAF DEFA |
BE E2 BAFA | BE E2 DB,A,B, | D3E FDFA | BFAF E2 :|
FA | Bdef g2 ag | f2 af gfed | B2 AF GABc | dBAF EFGA |
Bdef g2 ag | f2 af gfed | B2 AF DEFA | BFAD FE E2 ||
Bdef g2 ag | f2 af gfed | B2 AF GABc | dBAd Beef | 
g2 eg f2 ed | B2 AG FEDB, | E3D EFGA | BFAF E4 ||
%%%%%%%%%%%%%%%
